src/assets/images/prem-embeddings.svg

<svg fill="none" height="23" viewBox="0 0 31 23" width="31" xmlns="http://www.w3.org/2000/svg"><g fill="#ededed"><path d="m15.4927.0134439c3.3587 0 6.7174.0263946 10.0761-.0131973 1.4319-.019796 2.6197 1.1613634 2.6065 2.6196634-.0396 4.36831-.0396 8.73659 0 13.10489.0132 1.3066-.9634 2.6329-2.6395 2.6329-6.691-.0066-13.3887 0-20.07969 0-1.71565 0-2.65266-1.3791-2.63946-2.6329.03959-4.3683.03959-8.73658 0-13.10489-.0198-1.4649 1.17456-2.6394594 2.59987-2.6196634 3.35871.0395919 6.71738.0131973 10.07618.0131973zm2.0719 4.6784461c.0132-.59388-.4289-1.06898-.9568-1.08218-.5674-.0198-.937.27714-1.0821.89082-.1782.74565-.3432 1.49129-.5147 2.24354-.5213 2.26334-1.0426 4.52663-1.5573 6.79003-.1254.5345.2045 1.0426.7324 1.1811.6071.165 1.1218-.1913 1.2802-.8974.5543-2.4019 1.1085-4.80379 1.6628-7.2057.1452-.65987.297-1.32633.4355-1.92021zm-6.6778 1.01619c-.3035-.01979-.5675.14517-.7852.39592-.6533.76545-1.31317 1.52429-1.96644 2.29633-.4619.54769-.44871 1.0096.0198 1.55729.64007.75228 1.28014 1.49788 1.92684 2.24358.4289.4949 1.0162.574 1.4847.2045.4487-.3629.4949-.9964.0857-1.4913-.4091-.5015-.8248-.99637-1.2603-1.47148-.1848-.20456-.1914-.34313 0-.55429.4619-.51469.904-1.04258 1.3395-1.57707.264-.32994.264-.71926.0792-1.08218-.1781-.34973-.4817-.5279-.9238-.5213zm8.1691 5.87942c0 .4619.2112.7984.6005.9634.4025.1716.805.1254 1.0888-.1914.7588-.8446 1.5045-1.7156 2.2237-2.59324.3168-.38932.2772-.85123-.033-1.24055-.1715-.21776-.3497-.42232-.5278-.62687-.5279-.61368-1.0492-1.23395-1.5903-1.84103-.3102-.34973-.7721-.44211-1.168-.27054-.4091.17156-.6203.54769-.5939 1.03599.0132.27054.1584.4751.3234.66646.4025.4751.805.9568 1.2207 1.41871.1782.19796.1716.33653 0 .52789-.4355.4883-.8512.99638-1.2801 1.49788-.1716.1914-.2838.4157-.264.6533z"/><path d="m15.4947 22.1475c-4.7709 0-9.54828 0-14.31911 0-.71925 0-1.2009515-.4619-1.17455685-1.1218.01979595-.5477.46190585-.9964 1.00959685-1.0228.11217-.0066.21775 0 .32993 0h28.31484c.1649 0 .3299-.0066.4949.0198.5345.099.8974.6137.8446 1.168-.0462.5147-.4817.9304-1.003.9634-.132.0066-.2639 0-.3959 0-4.7114-.0066-9.4031-.0066-14.1013-.0066z"/></g></svg>

<svg width="31" height="23" viewBox="0 0 31 23" fill="none" xmlns="http://www.w3.org/2000/svg">
<path d="M15.4927 0.0134439C18.8514 0.0134439 22.2101 0.0398385 25.5688 0.000246599C27.0007 -0.0195494 28.1885 1.16161 28.1753 2.61991C28.1357 6.98822 28.1357 11.3565 28.1753 15.7248C28.1885 17.0314 27.2119 18.3577 25.5358 18.3577C18.8448 18.3511 12.1471 18.3577 5.45611 18.3577C3.74046 18.3577 2.80345 16.9786 2.81665 15.7248C2.85624 11.3565 2.85624 6.98822 2.81665 2.61991C2.79685 1.15501 3.99121 -0.0195494 5.41652 0.000246599C8.77523 0.0398385 12.1339 0.0134439 15.4927 0.0134439ZM17.5646 4.69189C17.5778 4.09801 17.1357 3.62291 16.6078 3.60971C16.0404 3.58991 15.6708 3.88685 15.5257 4.50053C15.3475 5.24618 15.1825 5.99182 15.011 6.74407C14.4897 9.00741 13.9684 11.2707 13.4537 13.5341C13.3283 14.0686 13.6582 14.5767 14.1861 14.7152C14.7932 14.8802 15.3079 14.5239 15.4663 13.8178C16.0206 11.4159 16.5748 9.01401 17.1291 6.6121C17.2743 5.95223 17.4261 5.28577 17.5646 4.69189ZM10.8868 5.70808C10.5833 5.68829 10.3193 5.85325 10.1016 6.104C9.4483 6.86945 8.78843 7.62829 8.13516 8.40033C7.67326 8.94802 7.68645 9.40993 8.15496 9.95762C8.79503 10.7099 9.4351 11.4555 10.0818 12.2012C10.5107 12.6961 11.098 12.7752 11.5665 12.4057C12.0152 12.0428 12.0614 11.4093 11.6522 10.9144C11.2431 10.4129 10.8274 9.91803 10.3919 9.44292C10.2071 9.23836 10.2005 9.09979 10.3919 8.88863C10.8538 8.37394 11.2959 7.84605 11.7314 7.31156C11.9954 6.98162 11.9954 6.5923 11.8106 6.22938C11.6325 5.87965 11.3289 5.70148 10.8868 5.70808ZM19.0559 11.5875C19.0559 12.0494 19.2671 12.3859 19.6564 12.5509C20.0589 12.7225 20.4614 12.6763 20.7452 12.3595C21.504 11.5149 22.2497 10.6439 22.9689 9.76626C23.2857 9.37694 23.2461 8.91503 22.9359 8.52571C22.7644 8.30795 22.5862 8.10339 22.4081 7.89884C21.8802 7.28516 21.3589 6.66489 20.8178 6.05781C20.5076 5.70808 20.0457 5.6157 19.6498 5.78727C19.2407 5.95883 19.0295 6.33496 19.0559 6.82326C19.0691 7.0938 19.2143 7.29836 19.3793 7.48972C19.7818 7.96482 20.1843 8.44652 20.6 8.90843C20.7782 9.10639 20.7716 9.24496 20.6 9.43632C20.1645 9.92462 19.7488 10.4327 19.3199 10.9342C19.1483 11.1256 19.0361 11.3499 19.0559 11.5875Z" fill="#EDEDED"/>
<path d="M15.4947 22.1475C10.7238 22.1475 5.94642 22.1475 1.17559 22.1475C0.45634 22.1475 -0.0253615 21.6856 0.00103315 21.0257C0.0208291 20.478 0.462939 20.0293 1.01063 20.0029C1.1228 19.9963 1.22838 20.0029 1.34056 20.0029C10.7766 20.0029 20.2193 20.0029 29.6554 20.0029C29.8203 20.0029 29.9853 19.9963 30.1503 20.0227C30.6848 20.1217 31.0477 20.6364 30.9949 21.1907C30.9487 21.7054 30.5132 22.1211 29.9919 22.1541C29.8599 22.1607 29.728 22.1541 29.596 22.1541C24.8846 22.1475 20.1929 22.1475 15.4947 22.1475Z" fill="#EDEDED"/>
</svg>
